app/img/symbol-slash.svg

<svg width="42" height="47" viewBox="0 0 42 47" fill="none" xmlns="http://www.w3.org/2000/svg">
<path fill-rule="evenodd" clip-rule="evenodd" d="M30.2583 26.1452H18.3291L23.5854 10.1537L29.5319 10.1888L26.079 20.7351L32.0078 20.7386L30.2583 26.1452Z" fill="url(#paint0_linear)"/>
<path fill-rule="evenodd" clip-rule="evenodd" d="M5.90442 46.9044H0C0 46.9044 10.7544 13.794 13.2657 6.06476C14.4406 2.44844 17.8089 0 21.6094 0H32.165C35.3482 0 38.0049 1.34505 39.6567 3.61793C41.3073 5.89094 41.7755 8.79933 40.813 11.7664C39.8492 14.7334 38.9388 17.5342 38.1055 20.1004C36.9802 23.5654 33.8628 25.953 30.2586 26.1471C30.2586 26.1471 30.24 26.1411 35.2899 10.5924C35.7358 9.22026 35.573 7.8772 34.8726 6.91395C34.1733 5.95083 32.9934 5.3808 31.4323 5.3808H22.3744C20.5959 5.3808 19.0198 6.52656 18.4696 8.21887L5.90442 46.9044Z" fill="#F0145A"/>
<defs>
<linearGradient id="paint0_linear" x1="18.3283" y1="23.0823" x2="31.6002" y2="30.0167" gradientUnits="userSpaceOnUse">
<stop stop-color="#F0145A"/>
<stop offset="1" stop-color="#693264"/>
</linearGradient>
</defs>
</svg>

<svg width="42" height="47" fill="none" xmlns="http://www.w3.org/2000/svg"><path fill-rule="evenodd" clip-rule="evenodd" d="M30.258 26.145H18.33l5.256-15.991 5.947.035-3.453 10.546 5.929.004-1.75 5.406z" fill="url(#paint0_linear)"/><path fill-rule="evenodd" clip-rule="evenodd" d="M5.904 46.904H0s10.754-33.11 13.266-40.84A8.774 8.774 0 0121.609 0h10.556c3.183 0 5.84 1.345 7.492 3.618 1.65 2.273 2.119 5.181 1.156 8.148L38.105 20.1a8.74 8.74 0 01-7.846 6.047s-.019-.006 5.03-15.555c.447-1.372.284-2.715-.416-3.678-.7-.963-1.88-1.533-3.44-1.533h-9.059a4.107 4.107 0 00-3.904 2.838L5.904 46.904z" fill="#F0145A"/><defs><linearGradient id="paint0_linear" x1="18.328" y1="23.082" x2="31.6" y2="30.017" gradientUnits="userSpaceOnUse"><stop stop-color="#F0145A"/><stop offset="1" stop-color="#693264"/></linearGradient></defs></svg>
